packages/icon-set-ionic/svg/sharp/trash-bin-sharp.svg

<svg viewBox="0 0 512 512" xmlns="http://www.w3.org/2000/svg"><path d="m337.46 240-25.46-25.46-56 56-56-56-25.46 25.46 56 56-56 56 25.46 25.46 56-56 56 56 25.46-25.46-56-56z" fill="none"/><path d="m337.46 240-25.46-25.46-56 56-56-56-25.46 25.46 56 56-56 56 25.46 25.46 56-56 56 56 25.46-25.46-56-56z" fill="none"/><path d="m64 160 29.74 282.51a24 24 0 0 0 23.87 21.49h276.78a24 24 0 0 0 23.87-21.49l29.74-282.51zm248 217.46-56-56-56 56-25.46-25.46 56-56-56-56 25.46-25.46 56 56 56-56 25.46 25.46-56 56 56 56z"/><rect height="80" rx="12" width="448" x="32" y="48"/></svg>

<svg xmlns="http://www.w3.org/2000/svg" viewBox="0 0 512 512"><path fill="none" d="M337.46 240 312 214.54l-56 56-56-56L174.54 240l56 56-56 56L200 377.46l56-56 56 56L337.46 352l-56-56z"/><path fill="none" d="M337.46 240 312 214.54l-56 56-56-56L174.54 240l56 56-56 56L200 377.46l56-56 56 56L337.46 352l-56-56z"/><path d="m64 160 29.74 282.51A24 24 0 0 0 117.61 464h276.78a24 24 0 0 0 23.87-21.49L448 160zm248 217.46-56-56-56 56L174.54 352l56-56-56-56L200 214.54l56 56 56-56L337.46 240l-56 56 56 56z"/><rect width="448" height="80" x="32" y="48" rx="12"/></svg>
